assets/Houses/Flat/houses_flat.svg

<svg width="32" height="32" viewBox="0 0 32 32" fill="none" xmlns="http://www.w3.org/2000/svg">
<path d="M30 29H2V17.8785C2 17.3894 2.39943 17 2.87874 17H29.1113C29.6006 17 29.99 17.3993 29.99 17.8785V29H30Z" fill="#00F397"/>
<path d="M5.97 5.27V7.16124L8.53548 5.05249L13.0665 9.23152L16.5 6L19 8.35294V5.27C19 5.12 19.12 5 19.27 5H20.71C20.85 5 20.97 5.12 20.97 5.27V7.23791L23.5925 5.05249L28.9825 10.0925V17.5025H25V24H8V17.5025H3V9.60249L4 8.78052V5.27C4 5.12 4.12 5 4.27 5H5.71C5.85 5 5.97 5.12 5.97 5.27Z" fill="#F3C07B"/>
<path d="M11.7913 8.75948L6.38249 14.0825C6.0325 14.4325 6.0325 14.9925 6.38249 15.3325C6.7325 15.6725 7.3025 15.6825 7.6525 15.3325L16.4825 6.6325L25.2825 15.3025C25.6325 15.6525 26.2025 15.6525 26.5525 15.3025C26.9025 14.9525 26.9125 14.4025 26.5625 14.0625L20.6869 8.27406L23.5726 5.4325L29.4426 11.2125C29.6726 11.4425 30.0526 11.4425 30.2926 11.2125C30.5326 10.9825 30.5126 10.6025 30.2826 10.3725L23.9926 4.1725C23.7626 3.9425 23.3826 3.9425 23.1426 4.1725C23.1426 4.1725 23.1326 4.1725 23.1326 4.1825L19.8341 7.43386L17.1225 4.7625C16.7725 4.4125 16.2025 4.4125 15.8525 4.7625C15.8525 4.7625 15.8425 4.7625 15.8425 4.7725L12.6393 7.92487L8.8325 4.1725C8.6025 3.9425 8.2225 3.9425 7.9825 4.1725C7.9825 4.1725 7.9725 4.1725 7.9725 4.1825L1.6725 10.3925C1.4425 10.6225 1.4425 11.0025 1.6725 11.2325C1.9025 11.4625 2.2825 11.4625 2.5225 11.2325L8.4125 5.4325L11.7913 8.75948Z" fill="#F8312F"/>
<path d="M21.4286 19H18.5714C18.2506 19 18 18.7393 18 18.4286V15.5714C18 15.2506 18.2607 15 18.5714 15H21.4286C21.7494 15 22 15.2607 22 15.5714V18.4286C22 18.7494 21.7494 19 21.4286 19Z" fill="#83CBFF"/>
<path d="M16 23.37H10V16.02C10 15.46 10.46 15 11.02 15H14.98C15.54 15 16 15.46 16 16.02V23.37V23.37Z" fill="#8C5543"/>
<path d="M14.44 19.88C14.683 19.88 14.88 19.683 14.88 19.44C14.88 19.197 14.683 19 14.44 19C14.197 19 14 19.197 14 19.44C14 19.683 14.197 19.88 14.44 19.88Z" fill="#402A32"/>
<path d="M9 24C9 23.4435 9.582 23 10.2922 23H15.7078C16.418 23 17 23.4516 17 24" fill="#D3D3D3"/>
<path d="M2.0802 18.087C2.21053 18.4783 2.4812 18.7993 2.84211 18.99V19H5.52882C5.80952 18.8094 6 18.4883 6 18.1271V18.1271C6 18.087 6 18.0569 5.98998 18.0268V17.9967C5.93985 17.5853 5.65915 17.2441 5.2782 17.1237C5.16792 17.0936 5.06767 17.0134 5.01754 16.903C4.75689 16.3712 4.21554 16 3.58396 16C3.15288 16 2.7619 16.1706 2.47118 16.4515C2.18045 16.7425 2 17.1438 2 17.5853C2 17.7559 2.03008 17.9264 2.0802 18.087ZM29.9198 18.087C29.7895 18.4783 29.5188 18.7993 29.1579 18.99V19H26.4712C26.1905 18.8094 26 18.4883 26 18.1271C26 18.087 26 18.0569 26.01 18.0268V17.9967C26.0602 17.5853 26.3409 17.2441 26.7218 17.1237C26.8321 17.0936 26.9323 17.0134 26.9825 16.903C27.2431 16.3712 27.7845 16 28.416 16C28.8471 16 29.2381 16.1706 29.5288 16.4515C29.8195 16.7425 30 17.1438 30 17.5853C30 17.7559 29.9699 17.9264 29.9198 18.087ZM26.534 25C27.165 24.6852 27.6408 24.1481 27.8544 23.4907C27.9515 23.2222 28 22.9444 28 22.6481C28 21.9167 27.6893 21.2407 27.1748 20.7593C26.6699 20.2963 25.9903 20 25.233 20C24.1359 20 23.1845 20.6111 22.7282 21.5093C22.6408 21.6944 22.466 21.8241 22.2621 21.8796C21.6019 22.0833 21.1068 22.6481 21.0194 23.3241C21.0097 23.3426 21.0097 23.3611 21.0194 23.3704C21 23.4167 21 23.4815 21 23.537V23.537C21 24.1481 21.3301 24.6944 21.8252 25H26H26.534ZM4.14563 23.4907C4.35922 24.1481 4.83495 24.6852 5.46602 25H6H10.1748C10.6699 24.6944 11 24.1481 11 23.537C11 23.4815 11 23.4167 10.9806 23.3704C10.9903 23.3611 10.9903 23.3426 10.9806 23.3241C10.8932 22.6481 10.3981 22.0833 9.73786 21.8796C9.53398 21.8241 9.35922 21.6944 9.27184 21.5093C8.81553 20.6111 7.86408 20 6.76699 20C6.00971 20 5.3301 20.2963 4.82524 20.7593C4.31068 21.2407 4 21.9167 4 22.6481C4 22.9444 4.04854 23.2222 4.14563 23.4907Z" fill="#00D26A"/>
</svg>

<svg xmlns="http://www.w3.org/2000/svg" width="32" height="32" fill="none"><path fill="#00F397" d="M30 29H2V17.878c0-.489.4-.878.879-.878H29.11c.49 0 .879.4.879.878V29H30Z"/><path fill="#F3C07B" d="M5.97 5.27v1.891l2.565-2.109 4.531 4.18L16.5 6 19 8.353V5.27c0-.15.12-.27.27-.27h1.44c.14 0 .26.12.26.27v1.968l2.623-2.186 5.39 5.04v7.41H25V24H8v-6.497H3v-7.9l1-.822V5.27c0-.15.12-.27.27-.27h1.44c.14 0 .26.12.26.27Z"/><path fill="#F8312F" d="m11.791 8.76-5.409 5.322c-.35.35-.35.91 0 1.25.35.34.92.35 1.27 0l8.83-8.7 8.8 8.67a.9.9 0 0 0 1.27 0c.35-.35.36-.9.01-1.24l-5.875-5.788 2.886-2.841 5.87 5.78c.23.23.61.23.85 0s.22-.61-.01-.84l-6.29-6.2a.61.61 0 0 0-.85 0s-.01 0-.01.01l-3.299 3.25-2.712-2.67a.9.9 0 0 0-1.27 0s-.01 0-.01.01L12.64 7.925 8.833 4.173a.61.61 0 0 0-.85 0s-.01 0-.01.01l-6.3 6.21c-.23.23-.23.61 0 .84.23.23.61.23.85 0l5.89-5.8 3.378 3.326Z"/><path fill="#83CBFF" d="M21.429 19H18.57a.571.571 0 0 1-.571-.571V15.57c0-.32.26-.571.571-.571h2.858c.32 0 .571.26.571.571v2.858c0 .32-.25.571-.571.571Z"/><path fill="#8C5543" d="M16 23.37h-6v-7.35c0-.56.46-1.02 1.02-1.02h3.96c.56 0 1.02.46 1.02 1.02v7.35Z"/><path fill="#402A32" d="M14.44 19.88a.44.44 0 1 0 0-.88.44.44 0 0 0 0 .88Z"/><path fill="#D3D3D3" d="M9 24c0-.556.582-1 1.292-1h5.416c.71 0 1.292.452 1.292 1"/><path fill="#00D26A" d="M2.08 18.087c.13.391.401.712.762.903V19H5.53c.28-.19.471-.512.471-.873 0-.04 0-.07-.01-.1v-.03a1.043 1.043 0 0 0-.712-.873.407.407 0 0 1-.26-.221A1.599 1.599 0 0 0 3.584 16c-.431 0-.822.17-1.113.451a1.601 1.601 0 0 0-.39 1.636Zm27.84 0a1.58 1.58 0 0 1-.762.903V19H26.47a1.061 1.061 0 0 1-.471-.873c0-.04 0-.07.01-.1v-.03c.05-.412.33-.753.712-.873.11-.03.21-.11.26-.221.261-.532.803-.903 1.434-.903.431 0 .822.17 1.113.451a1.601 1.601 0 0 1 .39 1.636ZM26.534 25a2.585 2.585 0 0 0 1.32-1.51c.098-.268.146-.546.146-.842 0-.731-.31-1.407-.825-1.889A2.867 2.867 0 0 0 25.233 20a2.797 2.797 0 0 0-2.505 1.51.712.712 0 0 1-.466.37c-.66.203-1.155.768-1.243 1.444-.01.019-.01.037 0 .046-.019.047-.019.111-.019.167 0 .611.33 1.157.825 1.463h4.709ZM4.146 23.49c.213.658.689 1.195 1.32 1.51h4.709c.495-.306.825-.852.825-1.463 0-.055 0-.12-.02-.167.01-.009.01-.027 0-.046-.087-.676-.582-1.24-1.242-1.444a.711.711 0 0 1-.466-.37A2.797 2.797 0 0 0 6.767 20c-.757 0-1.437.296-1.942.76A2.585 2.585 0 0 0 4 22.647c0 .296.049.574.146.843Z"/></svg>
